storage/app/icons/phosphoricons/light/corners-in-light.svg

<svg xmlns="http://www.w3.org/2000/svg" fill="currentColor" viewBox="0 0 256 256"><path d="M154 96V48a6 6 0 0 1 12 0v42h42a6 6 0 0 1 0 12h-48a6 6 0 0 1-6-6m-58 58H48a6 6 0 0 0 0 12h42v42a6 6 0 0 0 12 0v-48a6 6 0 0 0-6-6m112 0h-48a6 6 0 0 0-6 6v48a6 6 0 0 0 12 0v-42h42a6 6 0 0 0 0-12M96 42a6 6 0 0 0-6 6v42H48a6 6 0 0 0 0 12h48a6 6 0 0 0 6-6V48a6 6 0 0 0-6-6"/></svg>

<svg xmlns="http://www.w3.org/2000/svg" viewBox="0 0 256 256" fill="currentColor"><path d="M154,96V48a6,6,0,0,1,12,0V90h42a6,6,0,0,1,0,12H160A6,6,0,0,1,154,96ZM96,154H48a6,6,0,0,0,0,12H90v42a6,6,0,0,0,12,0V160A6,6,0,0,0,96,154Zm112,0H160a6,6,0,0,0-6,6v48a6,6,0,0,0,12,0V166h42a6,6,0,0,0,0-12ZM96,42a6,6,0,0,0-6,6V90H48a6,6,0,0,0,0,12H96a6,6,0,0,0,6-6V48A6,6,0,0,0,96,42Z"/></svg>
